assets/icons/clock-rotate-left.svg

<svg xmlns="http://www.w3.org/2000/svg" class="icon" viewBox="0 0 512 512">
  <path
    d="M48 107V56zV56q-2-22-24-24Q2 34 0 56v112q2 22 24 24h112q22-2 24-24-2-22-24-24H81q28-44 74-70 45-25 101-26 88 2 147 61t61 147q-2 88-61 147t-147 61q-65-1-115-34-19-11-33 6-10 20 7 34 62 41 141 42 72-1 129-35 58-34 92-92 34-57 35-129-1-72-35-129-34-58-92-92Q328 1 256 0q-65 1-119 29-54 29-89 78m208 21q-22 2-24 24v104q0 10 7 17l72 72q17 14 34 0 14-17 0-34l-65-65v-94q-2-22-24-24" />
</svg>

<svg xmlns="http://www.w3.org/2000/svg" class="icon" viewBox="0 0 512 512">
  <path
    d="M 48 107 L 48 56 L 48 107 L 48 56 Q 46 34 24 32 Q 2 34 0 56 L 0 168 L 0 168 Q 2 190 24 192 L 136 192 L 136 192 Q 158 190 160 168 Q 158 146 136 144 L 81 144 L 81 144 Q 109 100 155 74 Q 200 49 256 48 Q 344 50 403 109 Q 462 168 464 256 Q 462 344 403 403 Q 344 462 256 464 Q 191 463 141 430 Q 122 419 108 436 Q 98 456 115 470 Q 177 511 256 512 Q 328 511 385 477 Q 443 443 477 385 Q 511 328 512 256 Q 511 184 477 127 Q 443 69 385 35 Q 328 1 256 0 Q 191 1 137 29 Q 83 58 48 107 L 48 107 Z M 256 128 Q 234 130 232 152 L 232 256 L 232 256 Q 232 266 239 273 L 311 345 L 311 345 Q 328 359 345 345 Q 359 328 345 311 L 280 246 L 280 246 L 280 152 L 280 152 Q 278 130 256 128 L 256 128 Z"
  />
</svg>
